modules/feathericon/icons/tired.svg

<?xml version="1.0" encoding="UTF-8"?>
<svg width="24px" height="24px" viewBox="0 0 24 24" version="1.1" xmlns="http://www.w3.org/2000/svg" xmlns:xlink="http://www.w3.org/1999/xlink">
    <!-- Generator: sketchtool 52.2 (67145) - http://www.bohemiancoding.com/sketch -->
    <title>tired</title>
    <desc>Created with sketchtool.</desc>
    <g id="people" stroke="none" stroke-width="1" fill="none" fill-rule="evenodd">
        <g id="tired" fill="#000000" fill-rule="nonzero">
            <path d="M12,20 C16.418278,20 20,16.418278 20,12 C20,7.581722 16.418278,4 12,4 C7.581722,4 4,7.581722 4,12 C4,16.418278 7.581722,20 12,20 Z M12,22 C6.4771525,22 2,17.5228475 2,12 C2,6.4771525 6.4771525,2 12,2 C17.5228475,2 22,6.4771525 22,12 C22,17.5228475 17.5228475,22 12,22 Z M8.2,10 L7,8.8 L7.8,8 L9,9.2 L10.2,8 L11,8.8 L9.8,10 L11,11.2 L10.2,12 L9,10.8 L7.8,12 L7,11.2 L8.2,10 Z M14.2,10 L13,8.8 L13.8,8 L15,9.2 L16.2,8 L17,8.8 L15.8,10 L17,11.2 L16.2,12 L15,10.8 L13.8,12 L13,11.2 L14.2,10 Z M12,17 C13.1045695,17 14,16.1045695 14,15 C14,13.8954305 13.1045695,13 12,13 C10.8954305,13 10,13.8954305 10,15 C10,16.1045695 10.8954305,17 12,17 Z" id="Shape"></path>
        </g>
    </g>
</svg>

<svg width="24" height="24" viewBox="0 0 24 24" xmlns="http://www.w3.org/2000/svg"><path d="M12 20a8 8 0 1 0 0-16 8 8 0 0 0 0 16zm0 2C6.477 22 2 17.523 2 12S6.477 2 12 2s10 4.477 10 10-4.477 10-10 10zM8.2 10L7 8.8l.8-.8L9 9.2 10.2 8l.8.8L9.8 10l1.2 1.2-.8.8L9 10.8 7.8 12l-.8-.8L8.2 10zm6 0L13 8.8l.8-.8L15 9.2 16.2 8l.8.8-1.2 1.2 1.2 1.2-.8.8-1.2-1.2-1.2 1.2-.8-.8 1.2-1.2zM12 17a2 2 0 1 0 0-4 2 2 0 0 0 0 4z" fill="#000" fill-rule="nonzero"/></svg>
